themes/boot/static/assets/google-plus.svg

<svg xmlns="http://www.w3.org/2000/svg" width="18" height="14" viewBox="0 0 18 14"><path d="M11.2 7.1q0 1.6-0.7 2.9t-1.9 2-2.9 0.7q-1.2 0-2.2-0.5t-1.8-1.2-1.2-1.8-0.5-2.2 0.5-2.2 1.2-1.8 1.8-1.2 2.2-0.5q2.2 0 3.8 1.5l-1.6 1.5q-0.9-0.9-2.3-0.9-1 0-1.8 0.5t-1.3 1.3-0.5 1.8 0.5 1.8 1.3 1.3 1.8 0.5q0.6 0 1.2-0.2t0.9-0.4 0.6-0.6 0.4-0.6 0.2-0.6h-3.2v-2h5.4q0.1 0.5 0.1 1zM18 6.2v1.6h-1.6v1.6h-1.6v-1.6h-1.6v-1.6h1.6v-1.6h1.6v1.6h1.6z"/></svg>

<svg xmlns="http://www.w3.org/2000/svg" width="18" height="14"><path d="M11.2 7.1q0 1.6-.7 2.9t-1.9 2-2.9.7q-1.2 0-2.2-.5T1.7 11 .5 9.2 0 7t.5-2.2T1.7 3t1.8-1.2 2.2-.5q2.2 0 3.8 1.5L7.9 4.3q-.9-.9-2.3-.9-1 0-1.8.5T2.5 5.2 2 7t.5 1.8 1.3 1.3 1.8.5q.6 0 1.2-.2t.9-.4.6-.6.4-.6.2-.6H5.7v-2h5.4q.1.5.1 1zm6.8-.9v1.6h-1.6v1.6h-1.6V7.8h-1.6V6.2h1.6V4.6h1.6v1.6H18z"/></svg>
